packages/gestalt-icons-android/vr-theme/ic_vr_select_gestalt.svg

<svg width="24" height="24" viewBox="0 0 24 24" fill="none" xmlns="http://www.w3.org/2000/svg">
<path fill-rule="evenodd" clip-rule="evenodd" d="M1 5C1 2.79086 2.79086 1 5 1H9V3H5C3.89543 3 3 3.89543 3 5V9H1V5ZM19 3H15V1H19C21.2091 1 23 2.79086 23 5V9H21V5C21 3.89543 20.1046 3 19 3ZM1 19V15H3V19C3 20.1046 3.89543 21 5 21H9V23H5C2.79086 23 1 21.2091 1 19ZM21 19V15H23V19C23 21.2091 21.2091 23 19 23H15V21H19C20.1046 21 21 20.1046 21 19Z" fill="black"/>
</svg>

<svg xmlns="http://www.w3.org/2000/svg" width="24" height="24"><path d="M1 5a4 4 0 0 1 4-4h4v2H5a2 2 0 0 0-2 2v4H1zm18-2h-4V1h4a4 4 0 0 1 4 4v4h-2V5a2 2 0 0 0-2-2M1 19v-4h2v4c0 1.1.9 2 2 2h4v2H5a4 4 0 0 1-4-4m20 0v-4h2v4a4 4 0 0 1-4 4h-4v-2h4a2 2 0 0 0 2-2"/></svg>
